files/resources/svgs/general/o-film.svg

<svg width="24" height="24" viewBox="0 0 24 24" fill="none" xmlns="http://www.w3.org/2000/svg">
<path d="M3.375 19.5H20.625M3.375 19.5C2.75368 19.5 2.25 18.9963 2.25 18.375M3.375 19.5H4.875C5.49632 19.5 6 18.9963 6 18.375M2.25 18.375V5.625M2.25 18.375V16.875C2.25 16.2537 2.75368 15.75 3.375 15.75M21.75 18.375V5.625M21.75 18.375C21.75 18.9963 21.2463 19.5 20.625 19.5M21.75 18.375V16.875C21.75 16.2537 21.2463 15.75 20.625 15.75M20.625 19.5H19.125C18.5037 19.5 18 18.9963 18 18.375M20.625 4.5H3.375M20.625 4.5C21.2463 4.5 21.75 5.00368 21.75 5.625M20.625 4.5H19.125C18.5037 4.5 18 5.00368 18 5.625M21.75 5.625V7.125C21.75 7.74632 21.2463 8.25 20.625 8.25M3.375 4.5C2.75368 4.5 2.25 5.00368 2.25 5.625M3.375 4.5H4.875C5.49632 4.5 6 5.00368 6 5.625M2.25 5.625V7.125C2.25 7.74632 2.75368 8.25 3.375 8.25M3.375 8.25H4.875M3.375 8.25C2.75368 8.25 2.25 8.75368 2.25 9.375V10.875C2.25 11.4963 2.75368 12 3.375 12M4.875 8.25C5.49632 8.25 6 7.74632 6 7.125V5.625M4.875 8.25C5.49632 8.25 6 8.75368 6 9.375V10.875M6 5.625V10.875M6 5.625C6 5.00368 6.50368 4.5 7.125 4.5H16.875C17.4963 4.5 18 5.00368 18 5.625M19.125 8.25H20.625M19.125 8.25C18.5037 8.25 18 7.74632 18 7.125V5.625M19.125 8.25C18.5037 8.25 18 8.75368 18 9.375V10.875M20.625 8.25C21.2463 8.25 21.75 8.75368 21.75 9.375V10.875C21.75 11.4963 21.2463 12 20.625 12M18 5.625V10.875M7.125 12H16.875M7.125 12C6.50368 12 6 11.4963 6 10.875M7.125 12C6.50368 12 6 12.5037 6 13.125M6 10.875C6 11.4963 5.49632 12 4.875 12M18 10.875C18 11.4963 17.4963 12 16.875 12M18 10.875C18 11.4963 18.5037 12 19.125 12M16.875 12C17.4963 12 18 12.5037 18 13.125M6 18.375V13.125M6 18.375C6 18.9963 6.50368 19.5 7.125 19.5H16.875C17.4963 19.5 18 18.9963 18 18.375M6 18.375V16.875C6 16.2537 5.49632 15.75 4.875 15.75M18 18.375V13.125M18 18.375V16.875C18 16.2537 18.5037 15.75 19.125 15.75M18 13.125V14.625C18 15.2463 18.5037 15.75 19.125 15.75M18 13.125C18 12.5037 18.5037 12 19.125 12M6 13.125V14.625C6 15.2463 5.49632 15.75 4.875 15.75M6 13.125C6 12.5037 5.49632 12 4.875 12M3.375 12H4.875M3.375 12C2.75368 12 2.25 12.5037 2.25 13.125V14.625C2.25 15.2463 2.75368 15.75 3.375 15.75M19.125 12H20.625M20.625 12C21.2463 12 21.75 12.5037 21.75 13.125V14.625C21.75 15.2463 21.2463 15.75 20.625 15.75M3.375 15.75H4.875M19.125 15.75H20.625" stroke="#0F172A" stroke-width="1.5" stroke-linecap="round" stroke-linejoin="round"/>
</svg>

<svg xmlns="http://www.w3.org/2000/svg" fill="none" viewBox="0 0 24 24" stroke-width="1.5" stroke="currentColor" aria-hidden="true">
  <path stroke-linecap="round" stroke-linejoin="round" d="M3.375 19.5h17.25m-17.25 0a1.125 1.125 0 01-1.125-1.125M3.375 19.5h1.5C5.496 19.5 6 18.996 6 18.375m-3.75 0V5.625m0 12.75v-1.5c0-.621.504-1.125 1.125-1.125m18.375 2.625V5.625m0 12.75c0 .621-.504 1.125-1.125 1.125m1.125-1.125v-1.5c0-.621-.504-1.125-1.125-1.125m0 3.75h-1.5A1.125 1.125 0 0118 18.375M20.625 4.5H3.375m17.25 0c.621 0 1.125.504 1.125 1.125M20.625 4.5h-1.5C18.504 4.5 18 5.004 18 5.625m3.75 0v1.5c0 .621-.504 1.125-1.125 1.125M3.375 4.5c-.621 0-1.125.504-1.125 1.125M3.375 4.5h1.5C5.496 4.5 6 5.004 6 5.625m-3.75 0v1.5c0 .621.504 1.125 1.125 1.125m0 0h1.5m-1.5 0c-.621 0-1.125.504-1.125 1.125v1.5c0 .621.504 1.125 1.125 1.125m1.5-3.75C5.496 8.25 6 7.746 6 7.125v-1.5M4.875 8.25C5.496 8.25 6 8.754 6 9.375v1.5m0-5.25v5.25m0-5.25C6 5.004 6.504 4.5 7.125 4.5h9.75c.621 0 1.125.504 1.125 1.125m1.125 2.625h1.5m-1.5 0A1.125 1.125 0 0118 7.125v-1.5m1.125 2.625c-.621 0-1.125.504-1.125 1.125v1.5m2.625-2.625c.621 0 1.125.504 1.125 1.125v1.5c0 .621-.504 1.125-1.125 1.125M18 5.625v5.25M7.125 12h9.75m-9.75 0A1.125 1.125 0 016 10.875M7.125 12C6.504 12 6 12.504 6 13.125m0-2.25C6 11.496 5.496 12 4.875 12M18 10.875c0 .621-.504 1.125-1.125 1.125M18 10.875c0 .621.504 1.125 1.125 1.125m-2.25 0c.621 0 1.125.504 1.125 1.125m-12 5.25v-5.25m0 5.25c0 .621.504 1.125 1.125 1.125h9.75c.621 0 1.125-.504 1.125-1.125m-12 0v-1.5c0-.621-.504-1.125-1.125-1.125M18 18.375v-5.25m0 5.25v-1.5c0-.621.504-1.125 1.125-1.125M18 13.125v1.5c0 .621.504 1.125 1.125 1.125M18 13.125c0-.621.504-1.125 1.125-1.125M6 13.125v1.5c0 .621-.504 1.125-1.125 1.125M6 13.125C6 12.504 5.496 12 4.875 12m-1.5 0h1.5m-1.5 0c-.621 0-1.125.504-1.125 1.125v1.5c0 .621.504 1.125 1.125 1.125M19.125 12h1.5m0 0c.621 0 1.125.504 1.125 1.125v1.5c0 .621-.504 1.125-1.125 1.125m-17.25 0h1.5m14.25 0h1.5"/>
</svg>
